X:18380
T:Walls of Liscarrol, The
R:jig
H:Played in Ddor or Edor
D:Chieftains 1
Z:id:hn-jig-187
M:6/8
K:Ddor
dcA AGE|GED D2E|GEE cEE|GAB cde|dcA AGE|GED D2E|GEE cEE|DED D2d:|
dAd ecA|dAd ecA|GEE cEE|GAB cde|dAd ecA|dAd ecA|GEE cEE|DED D2d:|
"Version 2"
dcA AGE|GED D2E|GEE cBA|GAB cde|dcA AGE|GED D2E|GAB cGE|DED D2d:|
dcd ecA|dcd ecA|cdc cBA|GAB cGE|Ade fed|edc dcA|GEE cEE|DED D2d:|
K:Edor
edB BAF|AFE E2F|AFF dFF|ABc def|edB BAF|AFE E2F|AFF dFF|EFE E2e:|
eBe fdB|eBe fdB|AFF dFF|ABc def|eBe fdB|eBe fdB|AFF dFF|EFE E2e:|


